svgs/light/toothbrush.svg

<svg xmlns="http://www.w3.org/2000/svg" viewBox="0 0 576 512"><!--! Font Awesome Pro 6.0.0-alpha3 by @fontawesome - https://fontawesome.com License - https://fontawesome.com/license (Commercial License) --><path d="M64 224h352c33.7 0 62.87-26.15 63.93-59.84c1.979-62.51-40.76-118.3-98.67-131.8c-10.15-2.369-20.37 6.664-18.69 16.95C366 70.55 350.4 96 325.5 96H67.34C35.46 96 5.953 117.8 .8672 149.3C-5.617 189.4 25.11 224 64 224zM64 128h261.5c28.25 0 53.38-16.88 64.25-42.88c1.5-3.875 2.75-10.72 3.625-14.72C425.6 85.9 448 121.9 448 160c0 17.62-14.38 32-32 32H64C46.38 192 32 177.6 32 160S46.38 128 64 128zM560 448H448V272C448 263.2 440.8 256 432 256S416 263.2 416 272V448h-32V272C384 263.2 376.8 256 368 256S352 263.2 352 272V448h-32V272C320 263.2 312.8 256 304 256S288 263.2 288 272V448H256V272C256 263.2 248.8 256 240 256S224 263.2 224 272V448H192V272C192 263.2 184.8 256 176 256S160 263.2 160 272V448H128V272C128 263.2 120.8 256 112 256S96 263.2 96 272V448H64V272C64 263.2 56.84 256 48 256S32 263.2 32 272V448H16C7.164 448 0 455.2 0 464C0 472.8 7.164 480 16 480h544c8.836 0 16-7.164 16-16C576 455.2 568.8 448 560 448z"/></svg>

<svg xmlns="http://www.w3.org/2000/svg" viewBox="0 0 576 512"><!--! Font Awesome Pro 6.4.2 by @fontawesome - https://fontawesome.com License - https://fontawesome.com/license (Commercial License) Copyright 2023 Fonticons, Inc. --><path d="M64 192c-17.7 0-32-14.3-32-32s14.3-32 32-32H288c24.8 0 45.1-9.9 57.7-28.9c6.6-10.1 10.1-21.2 11.9-31.6c14.8 3.6 27.9 9.7 37.9 17.8C408.3 95.7 416 109.4 416 128c0 35.3-28.7 64-64 64H64zM0 160c0 35.3 28.7 64 64 64H352c53 0 96-43 96-96c0-58.5-51.6-89.9-104-95.2c-8.8-.9-15.8 6.4-16.4 15.2c-1.5 25.3-8.4 48-39.6 48H64C28.7 96 0 124.7 0 160zM64 272c0-8.8-7.2-16-16-16s-16 7.2-16 16V448H16c-8.8 0-16 7.2-16 16s7.2 16 16 16H48h64 64 64 64 64H560c8.8 0 16-7.2 16-16s-7.2-16-16-16H384V272c0-8.8-7.2-16-16-16s-16 7.2-16 16V448H320V272c0-8.8-7.2-16-16-16s-16 7.2-16 16V448H256V272c0-8.8-7.2-16-16-16s-16 7.2-16 16V448H192V272c0-8.8-7.2-16-16-16s-16 7.2-16 16V448H128V272c0-8.8-7.2-16-16-16s-16 7.2-16 16V448H64V272z"/></svg>
